Sources/FrostedUI/Resources/Icons.xcassets/lockFilled32.imageset/lock-filled-32.svg

<svg width="32" height="32" viewBox="0 0 32 32" fill="none" xmlns="http://www.w3.org/2000/svg" data-fui-icon="true">
  <path
    d="M16 0C21.6609 0 26.25 4.58908 26.25 10.25V13.6699C28.4089 14.2435 29.9999 16.2104 30 18.5498V26.9502C29.9999 29.7391 27.7391 31.9999 24.9502 32H7.0498C4.26092 31.9999 2.00011 29.7391 2 26.9502V18.5498C2.00009 16.2104 3.59114 14.2435 5.75 13.6699V10.25C5.75 4.58908 10.3391 0 16 0ZM16 2C11.4437 2 7.75 5.69365 7.75 10.25V13.5H24.25V10.25C24.25 5.69365 20.5563 2 16 2Z"
    fill="currentColor"
  />
</svg>

<svg xmlns="http://www.w3.org/2000/svg" width="32" height="32" fill="none" data-fui-icon="true" viewBox="0 0 32 32"><path fill="currentColor" d="M16 0c5.66 0 10.25 4.59 10.25 10.25v3.42A5.05 5.05 0 0 1 30 18.55v8.4A5.05 5.05 0 0 1 24.95 32H7.05A5.05 5.05 0 0 1 2 26.95v-8.4a5.05 5.05 0 0 1 3.75-4.88v-3.42C5.75 4.59 10.34 0 16 0m0 2a8.25 8.25 0 0 0-8.25 8.25v3.25h16.5v-3.25A8.25 8.25 0 0 0 16 2"/></svg>
